packages/kaspersky-hexa-ui-icons/src/iconsSVGs/28x20/FlagCeu.svg

<svg width="28" height="20" viewBox="0 0 28 20" fill="none" xmlns="http://www.w3.org/2000/svg">
<g clip-path="url(#clip0_5138_2194)">
<rect width="28" height="20" rx="2" fill="white"/>
<mask id="mask0_5138_2194" style="mask-type:luminance" maskUnits="userSpaceOnUse" x="0" y="0" width="28" height="20">
<rect width="28" height="20" rx="2" fill="white"/>
</mask>
<g mask="url(#mask0_5138_2194)">
<rect width="28" height="20" fill="#19BFBF"/>
<path fill-rule="evenodd" clip-rule="evenodd" d="M17.0976 17.7643L16.0556 16.7223C16.0191 16.6857 15.9915 16.6411 15.9751 16.592L15.4093 14.8944C15.3639 14.7584 15.2366 14.6667 15.0933 14.6667C14.8766 14.6667 14.7176 14.8703 14.7701 15.0805L15.2876 17.1503C15.316 17.2639 15.2827 17.384 15.1999 17.4668L14.9024 17.7643C14.7722 17.8945 14.5611 17.8945 14.431 17.7643L14.0976 17.431C14.0351 17.3685 14 17.2837 14 17.1953V16.0787C14 16.027 13.988 15.9759 13.9648 15.9296L13.4255 14.8509C13.369 14.738 13.2536 14.6667 13.1273 14.6667H11.412C11.3603 14.6667 11.3092 14.6787 11.263 14.7019L10.1235 15.2716C10.0444 15.3111 9.9843 15.3805 9.95634 15.4643L9.377 17.2024C9.34904 17.2862 9.28892 17.3556 9.20984 17.3951L8.14908 17.9255C8.05523 17.9724 7.94478 17.9724 7.85093 17.9255L6.85093 17.4255C6.73801 17.369 6.66667 17.2536 6.66667 17.1273V15C6.66667 14.8159 6.81591 14.6667 7.00001 14.6667H8.33334C8.51743 14.6667 8.66667 14.5174 8.66667 14.3334V13.3874C8.66667 13.3516 8.67245 13.316 8.68378 13.282L9.25736 11.5613C9.30274 11.4252 9.43011 11.3334 9.57359 11.3334H10.588C10.6397 11.3334 10.6908 11.3213 10.7371 11.2982L11.9296 10.7019C11.9759 10.6787 12.0269 10.6667 12.0787 10.6667H13C13.1841 10.6667 13.3333 10.5174 13.3333 10.3334V10.1381C13.3333 10.0497 13.3685 9.9649 13.431 9.90239L13.673 9.66037C13.8339 9.49949 14.1051 9.5435 14.2068 9.747L14.5745 10.4824C14.631 10.5954 14.7464 10.6667 14.8727 10.6667H16.4264C16.5699 10.6667 16.6973 10.5749 16.7426 10.4388L17.2574 8.89461C17.3027 8.7585 17.4301 8.66669 17.5736 8.66669H18.3333C18.5174 8.66669 18.6667 8.51745 18.6667 8.33335C18.6667 8.14926 18.5174 8.00002 18.3333 8.00002H17.6667C17.4826 8.00002 17.3333 7.85078 17.3333 7.66669V6.74538C17.3333 6.69363 17.3454 6.64259 17.3685 6.59631L17.8926 5.54824C17.9567 5.41991 17.9316 5.26492 17.8301 5.16347L17.569 4.90239C17.4389 4.77221 17.2278 4.77221 17.0976 4.90239L16.0976 5.90239C16.0351 5.9649 16 6.04969 16 6.13809V7.27926C16 7.31509 15.9942 7.35068 15.9829 7.38467L15.4093 9.10543C15.3639 9.24154 15.2366 9.33335 15.0931 9.33335H14.8047C14.7163 9.33335 14.6316 9.29823 14.569 9.23572L14.0961 8.76277C14.0346 8.70125 14 8.61781 14 8.53081C14 8.28694 13.7434 8.12834 13.5253 8.2374L12.8816 8.55924C12.7532 8.62341 12.5982 8.59826 12.4968 8.4968L12.0976 8.09765C12.0351 8.03514 12 7.95035 12 7.86195V6.80476C12 6.71635 12.0351 6.63157 12.0976 6.56906L13.3333 5.33335L15.2777 3.389C15.3143 3.3524 15.3589 3.32483 15.408 3.30847L17.282 2.68379C17.316 2.67246 17.3516 2.66669 17.3874 2.66669H18.4607C18.5869 2.66669 18.7023 2.73802 18.7588 2.85095L19.2981 3.92964C19.3213 3.97592 19.3333 4.02696 19.3333 4.07871V5.86195C19.3333 5.95035 19.3685 6.03514 19.431 6.09765L19.8543 6.52101C19.9436 6.61029 19.9748 6.74235 19.9349 6.86213L19.4138 8.42515C19.3663 8.56776 19.4201 8.72453 19.5452 8.80791L21.3333 10L22.3289 10.4978C22.5083 10.5875 22.5684 10.814 22.4572 10.9809L21.3893 12.5827C21.3528 12.6375 21.3333 12.7018 21.3333 12.7676V14.4264C21.3333 14.5699 21.2415 14.6973 21.1054 14.7427L19.4643 15.2897C19.3805 15.3176 19.3111 15.3778 19.2716 15.4568L18.6909 16.6183C18.6748 16.6503 18.6538 16.6796 18.6284 16.7049L17.569 17.7643C17.4389 17.8945 17.2278 17.8945 17.0976 17.7643ZM12 16.6667C12 17.0349 11.7015 17.3334 11.3333 17.3334C10.9651 17.3334 10.6667 17.0349 10.6667 16.6667C10.6667 16.2985 10.9651 16 11.3333 16C11.7015 16 12 16.2985 12 16.6667ZM8.66667 9.33335C9.03486 9.33335 9.33334 9.03488 9.33334 8.66669C9.33334 8.2985 9.03486 8.00002 8.66667 8.00002C8.29848 8.00002 8.00001 8.2985 8.00001 8.66669C8.00001 9.03488 8.29848 9.33335 8.66667 9.33335Z" fill="white"/>
<path fill-rule="evenodd" clip-rule="evenodd" d="M9.9648 8.73707C9.98795 8.69078 9.99999 8.63975 9.99999 8.588V8.07871C9.99999 8.02696 9.98795 7.97592 9.9648 7.92964L9.57453 7.14909C9.46371 6.92746 9.62488 6.66669 9.87267 6.66669H10.3333C10.5174 6.66669 10.6667 6.81593 10.6667 7.00002V8.588C10.6667 8.63975 10.6787 8.69078 10.7019 8.73707L11.0921 9.51762C11.2029 9.73925 11.0418 10 10.794 10H9.87267C9.62488 10 9.46371 9.73925 9.57453 9.51762L9.9648 8.73707Z" fill="white"/>
</g>
</g>
<defs>
<clipPath id="clip0_5138_2194">
<rect width="28" height="20" fill="white"/>
</clipPath>
</defs>
</svg>

<svg xmlns="http://www.w3.org/2000/svg" width="28" height="20" fill="none" viewBox="0 0 28 20"><g clip-path="url(#a)"><rect width="28" height="20" fill="#fff" rx="2"/><mask id="b" width="28" height="20" x="0" y="0" maskUnits="userSpaceOnUse" style="mask-type:luminance"><rect width="28" height="20" fill="#fff" rx="2"/></mask><g mask="url(#b)"><path fill="#19bfbf" d="M0 0h28v20H0z"/><path fill="#fff" fill-rule="evenodd" d="m17.0976 17.7643-1.042-1.042a.335.335 0 0 1-.0805-.1303l-.5658-1.6976a.3332.3332 0 0 0-.6392.1861l.5175 2.0698a.333.333 0 0 1-.0877.3165l-.2975.2975a.3333.3333 0 0 1-.4714 0l-.3334-.3333A.333.333 0 0 1 14 17.1953v-1.1166a.33.33 0 0 0-.0352-.1491l-.5393-1.0787a.333.333 0 0 0-.2982-.1842H11.412a.33.33 0 0 0-.149.0352l-1.1395.5697a.333.333 0 0 0-.1672.1927l-.5793 1.7381a.333.333 0 0 1-.1672.1927l-1.0607.5304a.334.334 0 0 1-.2982 0l-1-.5a.333.333 0 0 1-.1842-.2982V15A.3333.3333 0 0 1 7 14.6667h1.3333a.3334.3334 0 0 0 .3334-.3333v-.946a.33.33 0 0 1 .017-.1054l.5737-1.7207a.333.333 0 0 1 .3162-.2279h1.0144a.334.334 0 0 0 .1491-.0352l1.1925-.5963a.33.33 0 0 1 .1491-.0352H13a.3333.3333 0 0 0 .3333-.3333v-.1953a.334.334 0 0 1 .0977-.2357l.242-.242c.1609-.161.4321-.1169.5338.0866l.3677.7354a.333.333 0 0 0 .2982.1843h1.5537a.333.333 0 0 0 .3162-.2279l.5148-1.5442a.333.333 0 0 1 .3162-.228h.7597a.3334.3334 0 1 0 0-.6666h-.6666a.3334.3334 0 0 1-.3334-.3333v-.9213a.334.334 0 0 1 .0352-.149l.5241-1.0482a.333.333 0 0 0-.0625-.3847l-.2611-.2611a.3333.3333 0 0 0-.4714 0l-1 1A.333.333 0 0 0 16 6.138v1.1412a.33.33 0 0 1-.0171.1054l-.5736 1.7207a.333.333 0 0 1-.3162.228h-.2884a.334.334 0 0 1-.2357-.0977l-.4729-.473A.328.328 0 0 1 14 8.5309c0-.2439-.2566-.4025-.4747-.2934l-.6437.3218a.333.333 0 0 1-.3848-.0624l-.3992-.3992A.333.333 0 0 1 12 7.862V6.8048a.333.333 0 0 1 .0976-.2357l1.2357-1.2357 1.9444-1.9444a.33.33 0 0 1 .1303-.0805l1.874-.6247a.33.33 0 0 1 .1054-.0171h1.0733a.333.333 0 0 1 .2981.1843l.5393 1.0786a.33.33 0 0 1 .0352.1491V5.862c0 .0884.0352.1732.0977.2357l.4233.4234a.333.333 0 0 1 .0806.3411l-.5211 1.563a.3334.3334 0 0 0 .1314.3828L21.3333 10l.9956.4978a.3334.3334 0 0 1 .1283.4831l-1.0679 1.6018a.334.334 0 0 0-.056.1849v1.6588a.333.333 0 0 1-.2279.3163l-1.6411.547a.333.333 0 0 0-.1927.1671l-.5807 1.1615a.33.33 0 0 1-.0625.0866l-1.0594 1.0594a.3333.3333 0 0 1-.4714 0M12 16.6667a.6667.6667 0 1 1-1.3334 0 .6667.6667 0 0 1 1.3334 0M8.6667 9.3334a.6667.6667 0 1 0 0-1.3334.6667.6667 0 0 0 0 1.3333" clip-rule="evenodd"/><path fill="#fff" fill-rule="evenodd" d="M9.9648 8.737A.33.33 0 0 0 10 8.588v-.5093a.33.33 0 0 0-.0352-.149l-.3903-.7806c-.1108-.2216.0504-.4824.2982-.4824h.4606A.3334.3334 0 0 1 10.6667 7v1.588c0 .0518.012.1028.0352.149l.3902.7806c.1108.2217-.0503.4824-.2981.4824h-.9213c-.2478 0-.409-.2607-.2982-.4824z" clip-rule="evenodd"/></g></g><defs><clipPath id="a"><path fill="#fff" d="M0 0h28v20H0z"/></clipPath></defs></svg>
